icons/svg/tools_20.svg

<?xml version="1.0" encoding="UTF-8"?>
<svg width="20px" height="20px" viewBox="0 0 20 20" version="1.1" xmlns="http://www.w3.org/2000/svg" xmlns:xlink="http://www.w3.org/1999/xlink">
    <!-- Generator: Sketch 56.3 (81716) - https://sketch.com -->
    <title>tools_20</title>
    <desc>Created with Sketch.</desc>
    <g id="Icons-Webex" stroke="none" stroke-width="1" fill="none" fill-rule="evenodd">
        <g id="settings/tools_20" fill="#000000">
            <g id="fill">
                <path d="M18.5841,18.584 C18.0401,19.128 17.1561,19.128 16.6121,18.584 L6.8881,8.86 C6.7931,8.765 6.6651,8.714 6.5351,8.714 C6.4771,8.714 6.4191,8.724 6.3631,8.744 C5.8911,8.917 5.4451,9 5.0001,9 C2.7941,9 1.0001,7.206 1.0001,5 C1.0001,4.831 1.0131,4.662 1.0381,4.489 L3.0981,6.549 C3.3811,6.832 3.8751,6.832 4.1581,6.549 L6.4831,4.224 C6.6251,4.082 6.7031,3.894 6.7031,3.693 C6.7031,3.493 6.6251,3.305 6.4831,3.163 L4.3751,1.054 C6.8251,0.634 9.0001,2.588 9.0001,5 C9.0001,5.445 8.9161,5.891 8.7441,6.364 C8.6771,6.546 8.7221,6.751 8.8601,6.889 L18.5841,16.612 C19.1271,17.156 19.1271,18.041 18.5841,18.584 L18.5841,18.584 Z M15.5871,1.584 C16.3671,0.805 17.6361,0.805 18.4161,1.584 C19.1951,2.364 19.1951,3.633 18.4161,4.413 L13.1071,9.722 L12.0461,8.661 L17.0001,3.707 C17.1951,3.512 17.1951,3.195 17.0001,3 C16.8051,2.805 16.4881,2.805 16.2931,3 L11.3391,7.954 L10.2781,6.893 L15.5871,1.584 Z M2.7971,18.297 L1.5251,18.897 L1.1031,18.475 L1.7061,17.206 L2.9751,16.603 L3.3971,17.026 L2.7971,18.297 Z M13.8141,10.429 L19.1231,5.12 C20.2921,3.95 20.2921,2.047 19.1231,0.877 C17.9531,-0.292 16.0501,-0.292 14.8801,0.877 L9.9121,5.846 C9.9641,5.561 10.0001,5.278 10.0001,5 C10.0001,2.243 7.7571,0 5.0001,0 C4.4171,0 3.8241,0.112 3.2391,0.334 C3.0801,0.394 2.9621,0.531 2.9271,0.697 C2.8911,0.863 2.9421,1.035 3.0621,1.155 L5.6001,3.693 L3.6281,5.665 L1.1251,3.161 C1.0021,3.04 0.8261,2.988 0.6601,3.027 C0.4931,3.065 0.3561,3.187 0.2991,3.349 C0.0981,3.921 0.0001,4.461 0.0001,5 C0.0001,8.214 3.0741,10.789 6.3991,9.786 L7.9231,11.31 L3.5741,15.788 L3.4331,15.646 C3.2831,15.497 3.0561,15.457 2.8651,15.548 L1.1161,16.378 C1.0121,16.428 0.9281,16.512 0.8781,16.616 L0.0481,18.365 C-0.0419,18.556 -0.0029,18.783 0.1461,18.933 L1.0671,19.854 C1.1631,19.949 1.2911,20 1.4211,20 C1.4931,20 1.5661,19.984 1.6341,19.952 L3.3861,19.125 C3.4911,19.075 3.5751,18.991 3.6251,18.886 L4.4521,17.134 C4.5421,16.943 4.5031,16.716 4.3541,16.567 L4.2811,16.495 L8.6301,12.017 L15.9051,19.291 C16.3721,19.758 16.9851,19.991 17.5981,19.991 C18.2111,19.991 18.8241,19.758 19.2911,19.291 C20.2251,18.357 20.2251,16.839 19.2911,15.905 L13.8141,10.429 Z"></path>
            </g>
        </g>
    </g>
</svg>

<svg width="20" height="20" xmlns="http://www.w3.org/2000/svg"><path d="M18.584 18.584a1.395 1.395 0 01-1.972 0L6.888 8.86a.5.5 0 00-.525-.116A3.912 3.912 0 015 9C2.794 9 1 7.206 1 5c0-.169.013-.338.038-.511l2.06 2.06a.768.768 0 001.06 0l2.325-2.325a.745.745 0 00.22-.531c0-.2-.078-.388-.22-.53L4.375 1.054C6.825.634 9 2.588 9 5c0 .445-.084.891-.256 1.364a.499.499 0 00.116.525l9.724 9.723a1.397 1.397 0 010 1.972zm-2.997-17a2.004 2.004 0 012.83 0c.778.78.778 2.049 0 2.829l-5.31 5.309-1.06-1.061L17 3.707A.5.5 0 0016.293 3L11.34 7.954l-1.06-1.061 5.308-5.309zM2.797 18.297l-1.272.6-.422-.422.603-1.269 1.27-.603.421.423-.6 1.271zm11.017-7.868l5.31-5.309a3.005 3.005 0 000-4.243 3.005 3.005 0 00-4.244 0L9.912 5.846C9.964 5.561 10 5.278 10 5c0-2.757-2.243-5-5-5-.583 0-1.176.112-1.76.334a.499.499 0 00-.178.821L5.6 3.693 3.628 5.665 1.125 3.161a.502.502 0 00-.826.188A4.921 4.921 0 000 5c0 3.214 3.074 5.789 6.4 4.786l1.523 1.524-4.349 4.478-.14-.142a.5.5 0 00-.569-.098l-1.749.83a.509.509 0 00-.238.238l-.83 1.749a.502.502 0 00.098.568l.921.921a.504.504 0 00.567.098l1.752-.827a.504.504 0 00.24-.239l.826-1.752a.5.5 0 00-.098-.567l-.073-.072 4.35-4.478 7.274 7.274c.467.467 1.08.7 1.693.7s1.226-.233 1.693-.7a2.396 2.396 0 000-3.386l-5.477-5.476z" fill="#000" fill-rule="evenodd"/></svg>
